X: 2184
T: EARL MARISCHAL
Q: "Reel."
R: Reel.
%R: reel
B: James Kerr "Merry Melodies" v.2 p.21 #184
Z: 2016 John Chambers <jc:trillian.mit.edu>
M: C
L: 1/8
K: F
uA |\
F2(FA) cAAB | A/B/c (FA) cAAf |\
F2(FA) cAAc | dfcA G/G/G G ::\
ug |\
(f/g/a) (fc) d2(df) | cfAf cfAf |\
a/g/f/e/ fc d2(df) |[1 cAfd cAA :|[2 cAfd cAG |]
